svg/24/bold.svg

<svg width="24" height="24" viewBox="0 0 24 24" fill="currentColor" xmlns="http://www.w3.org/2000/svg"><path fill-rule="evenodd" clip-rule="evenodd" d="M6 5C6 3.89543 6.89543 3 8 3H13C15.7614 3 18 5.23858 18 8C18 9.30809 17.4977 10.4989 16.6754 11.3899C18.0775 12.3325 19 13.9335 19 15.75C19 18.6495 16.6495 21 13.75 21H8C6.89543 21 6 20.1046 6 19V5ZM15.5 8C15.5 9.38071 14.3807 10.5 13 10.5H8.5V5.5H13C14.3807 5.5 15.5 6.61929 15.5 8ZM8.5 13V18.5H13.75C15.2688 18.5 16.5 17.2688 16.5 15.75C16.5 14.2312 15.2688 13 13.75 13H8.5Z"/></svg>

<svg xmlns="http://www.w3.org/2000/svg" width="24" height="24" fill="currentColor" viewBox="0 0 24 24">
  <path fill-rule="evenodd" d="M6 5a2 2 0 0 1 2-2h5a5 5 0 0 1 3.675 8.39A5.25 5.25 0 0 1 13.75 21H8a2 2 0 0 1-2-2V5Zm9.5 3a2.5 2.5 0 0 1-2.5 2.5H8.5v-5H13A2.5 2.5 0 0 1 15.5 8Zm-7 5v5.5h5.25a2.75 2.75 0 1 0 0-5.5H8.5Z" clip-rule="evenodd"/>
</svg>
